X: 29774
T: O Steer Her Up, An Haud Her Gaun
R: polka
M: 2/4
K: Dmajor
fe|d2 d2 f3 e|defg a2 AG|F2 A2 A2 GF|E2 E2 c3
e|d2 d2 f3 e|defg a2 ga|bagf edec|d4 D2:|
fe|d2 A2 F3 A|dAGA F2 ED|E2 =c4 E=F|G=FED E2
fe|d2 A2 F3 E|DEFG A2 gf|efgf ecAc|d4 D2:|

